X:1
T:Gözlerin
T:Gözlerin 
T:Zülfü Livaneli
C:Zülfü Livaneli
L:1/8
Q:1/4=100
M:3/4
K:G
V:1 treble nm="Keman" snm="Kem."
V:1
 A2 E E3 | B2 A A3 | A2 GG E2 | E6 | G G2 E3 | B B2 A3 | A A2 G E2 | E6 | F2 G A3 | A2 G G2 F | %10
 G G2 D D2 | D2 EF (GF) | E6 | F2 G A3 | A2 G G2 F | G G2 D D2 | D2 EF (GF) | E6 | B2 c d3 | %19
 d2 c c2 B | B2 Bc BA | G2 E E3 | F2 G A3 | A2 G G2 F | G2 DD D2 | D E2 F2 E | E3- E3 |] %27

